X: 3875
T: Black Rogue, The
R: jig
M: 6/8
K: Dmajor
d|:cAA BGB|=cAA A2d|cAA BGB|AFD D2d|
cAA BGB|=cAA AGF|G2G BGB|1 AFD D2d:|2 AFD DAe||
|:f2f gfg|afd cBA|f2f gfg|afd cfg|
agf gfe|fdf eAd|cAc BGB|1 AFD DAe:|2 AFD D2d||

